src/assets/path2.svg

<svg fill="none" height="36" viewBox="0 0 36 36" width="36" xmlns="http://www.w3.org/2000/svg"><path clip-rule="evenodd" d="m20.4282 24.5104c3.4412-.4077 7.1013-1.6629 7.1013-7.6258 0-1.6948-.5949-3.076-1.5639-4.1432.1563-.4076.6564-1.9456-.1886-4.07937 0 0-1.2513-.40817-4.1913 1.56877-1.2513-.34483-2.6276-.5649-3.9101-.5649-1.3144 0-2.6911.22007-3.9112.5649-2.9719-1.97694-4.22313-1.56877-4.22313-1.56877-.84442 2.13377-.34374 3.67177-.18749 4.07937-.96998 1.0671-1.56434 2.4484-1.56434 4.1432 0 5.9629 3.66006 7.2181 7.10126 7.6258-.4376.3773-.8444 1.0984-1.0007 2.1029-.8763.3763-3.16 1.0985-4.53622-1.2867 0 0-.81366-1.4747-2.34626-1.5688 0 0-1.53308-.0313-.12507.9407 0 0 1.03199.4714 1.72065 2.2597 0 0 .93817 2.9819 5.2551 2.0401v2.6674c0 .4087-.3125.879-1.0944.7536-6.13182-2.0402-10.54254-7.8777-10.54254-14.7189 0-8.56799 6.91322-15.5033 15.45434-15.5033 8.5088 0 15.4538 6.93538 15.4225 15.5033 0 6.8412-4.4112 12.6473-10.5425 14.7189-.7824.1568-1.095-.3135-1.095-.7536v-4.2989c.0001-1.4445-.4698-2.3851-1.0324-2.8564zm14.8912-6.7782c0-9.79239-7.9149-17.73219993-17.6438-17.73219993-9.76116 0-17.67560075 7.93980993-17.67560075 17.73219993 0 9.7601 7.91444075 17.7004 17.67560075 17.7004 9.7289 0 17.6438-7.9403 17.6438-17.7004z" fill="#fff" fill-rule="evenodd"/></svg>

<svg width="36" height="36" viewBox="0 0 36 36" fill="none" xmlns="http://www.w3.org/2000/svg">
<path fill-rule="evenodd" clip-rule="evenodd" d="M20.4282 24.5104C23.8694 24.1027 27.5295 22.8475 27.5295 16.8846C27.5295 15.1898 26.9346 13.8086 25.9656 12.7414C26.1219 12.3338 26.622 10.7958 25.777 8.66203C25.777 8.66203 24.5257 8.25386 21.5857 10.2308C20.3344 9.88597 18.9581 9.6659 17.6756 9.6659C16.3612 9.6659 14.9845 9.88597 13.7644 10.2308C10.7925 8.25386 9.54127 8.66203 9.54127 8.66203C8.69685 10.7958 9.19753 12.3338 9.35378 12.7414C8.3838 13.8085 7.78944 15.1898 7.78944 16.8846C7.78944 22.8475 11.4495 24.1027 14.8907 24.5104C14.4531 24.8877 14.0463 25.6088 13.89 26.6133C13.0137 26.9896 10.73 27.7118 9.35378 25.3266C9.35378 25.3266 8.54012 23.8519 7.00752 23.7578C7.00752 23.7578 5.47444 23.7265 6.88245 24.6985C6.88245 24.6985 7.91444 25.1699 8.6031 26.9582C8.6031 26.9582 9.54127 29.9401 13.8582 28.9983V31.6657C13.8582 32.0744 13.5457 32.5447 12.7638 32.4193C6.63198 30.3791 2.22126 24.5416 2.22126 17.7004C2.22126 9.13241 9.13448 2.1971 17.6756 2.1971C26.1844 2.1971 33.1294 9.13248 33.0981 17.7004C33.0981 24.5416 28.6869 30.3477 22.5556 32.4193C21.7732 32.5761 21.4606 32.1058 21.4606 31.6657V27.3668C21.4607 25.9223 20.9908 24.9817 20.4282 24.5104ZM35.3194 17.7322C35.3194 7.93981 27.4045 6.72444e-08 17.6756 6.72444e-08C7.91444 6.72444e-08 -7.45072e-07 7.93981 -7.45072e-07 17.7322C-7.45072e-07 27.4923 7.91444 35.4326 17.6756 35.4326C27.4045 35.4326 35.3194 27.4923 35.3194 17.7322Z" fill="white"/>
</svg>
